resources/vendors/interkassa/icon.svg

<?xml version="1.0" encoding="UTF-8"?>
<svg enable-background="new 0 0 336 235.2" version="1.1" viewBox="0 0 173.63 243.74" xmlns="http://www.w3.org/2000/svg">
<rect width="173.63" height="243.74" fill-opacity="0" pointer-events="none"/>
<g transform="matrix(.34572 0 0 -.34572 1.8362 178.76)">
<path d="m0 0v-73.856s119.87-108.97 248.21-108.97 237.81 108.97 237.81 108.97v72.645c0.011 0.672-116.13-71.721-236.3-71.586-122.82 0.138-249.72 72.797-249.72 72.797" fill="#5bc23c"/>
</g>
<g transform="matrix(.34572 0 0 -.34572 169.85 84.842)">
<path d="m0 0v2.949h-0.074c-3.723 130.98-111 236.04-242.88 236.04s-239.16-105.06-242.88-236.04h-0.178v-236.45s107.51-66.301 253.71-66.301c138.63 0 232.31 67.501 232.31 67.501v224.17c0.022 1.359 0.103 2.703 0.103 4.067s-0.081 2.708-0.103 4.067" fill="#32ac4c"/>
</g>
<g transform="matrix(.34572 0 0 -.34572 88.955 129)">
<path d="m0 0c49.399 0 89.445 40.046 89.445 89.445s-40.046 89.445-89.445 89.445-89.445-40.046-89.445-89.445 40.046-89.445 89.445-89.445" fill="#fff"/>
</g>
<g transform="matrix(.34572 0 0 -.34572 132.26 181.85)">
<path d="m0 0c-5.654 77.442-59.553 138.19-125.25 138.19-66.402 0-120.74-62.064-125.4-140.7-74.391 20.376-127.21 50.799-127.21 50.799v-40.089s132.75-74.154 252.52-74.154 234.6 70.299 234.6 70.299l0.052 43.944s-57.941-33.371-109.31-48.286" fill="#fff"/>
</g>
</svg>

<?xml version="1.0" encoding="utf-8"?>
<svg id="master-artboard" viewBox="0 0 173.6317596435547 243.74124145507812" version="1.1" xmlns="http://www.w3.org/2000/svg" x="0px" y="0px" style="enable-background:new 0 0 336 235.2;" width="173.6317596435547px" height="243.74124145507812px"><rect id="ee-background" x="0" y="0" width="173.6317596435547" height="243.74124145507812" style="fill: white; fill-opacity: 0; pointer-events: none;"/><defs><clipPath id="clipPath20" clipPathUnits="userSpaceOnUse"><path id="path18" d="M 0,2834.646 H 2834.646 V 0 H 0 Z"/></clipPath></defs><metadata id="metadata8"/><g transform="matrix(0.34572187066078186, 0, 0, -0.34572187066078186, 1.8361542883276343, 178.7577522768297)" id="g58"><path id="path60" style="fill:#5bc23c;fill-opacity:1;fill-rule:nonzero;stroke:none" d="m 0,0 v -73.856 c 0,0 119.866,-108.969 248.207,-108.969 128.341,0 237.812,108.969 237.812,108.969 V -1.211 C 486.03,-0.539 369.888,-72.932 249.72,-72.797 126.901,-72.659 0,0 0,0"/></g><g transform="matrix(0.34572187066078186, 0, 0, -0.34572187066078186, 169.84570484427059, 84.84197564758506)" id="g62"><path id="path64" style="fill:#32ac4c;fill-opacity:1;fill-rule:nonzero;stroke:none" d="m 0,0 v 2.949 h -0.074 c -3.723,130.985 -110.998,236.045 -242.884,236.045 -131.886,0 -239.161,-105.06 -242.883,-236.045 h -0.178 v -236.45 c 0,0 107.507,-66.301 253.707,-66.301 C -93.68,-299.802 0,-232.301 0,-232.301 V -8.134 c 0.022,1.359 0.103,2.703 0.103,4.067 C 0.103,-2.703 0.022,-1.359 0,0"/></g><g transform="matrix(0.34572187066078186, 0, 0, -0.34572187066078186, 88.95472115648408, 128.99718301841858)" id="g66"><path id="path68" style="fill:#ffffff;fill-opacity:1;fill-rule:nonzero;stroke:none" d="m 0,0 c 49.399,0 89.445,40.046 89.445,89.445 0,49.399 -40.046,89.445 -89.445,89.445 -49.399,0 -89.445,-40.046 -89.445,-89.445 C -89.445,40.046 -49.399,0 0,0"/></g><g transform="matrix(0.34572187066078186, 0, 0, -0.34572187066078186, 132.25554140921116, 181.84730387684613)" id="g70"><path id="path72" style="fill:#ffffff;fill-opacity:1;fill-rule:nonzero;stroke:none" d="m 0,0 c -5.654,77.442 -59.553,138.186 -125.248,138.186 -66.402,0 -120.74,-62.064 -125.4,-140.699 -74.391,20.376 -127.214,50.799 -127.214,50.799 V 8.197 c 0,0 132.749,-74.154 252.522,-74.154 119.773,0 234.602,70.299 234.602,70.299 l 0.052,43.944 C 109.314,48.286 51.373,14.915 0,0"/></g></svg>
